svg/fluentui-system-icons/ic_fluent_person_square_20_regular.svg

<svg width="20" height="20" viewBox="0 0 20 20" fill="none" xmlns="http://www.w3.org/2000/svg">
<path d="M10 5C8.89543 5 8 5.89543 8 7C8 8.10457 8.89543 9 10 9C11.1046 9 12 8.10457 12 7C12 5.89543 11.1046 5 10 5ZM12.5 10L7.49998 10C6.67156 10 6 10.6716 6 11.5C6 12.6161 6.45897 13.5103 7.21215 14.1148C7.95342 14.7098 8.94692 15 10 15C11.0531 15 12.0466 14.7098 12.7879 14.1148C13.541 13.5103 14 12.6161 14 11.5C14 10.6716 13.3284 10 12.5 10ZM6 3C4.34315 3 3 4.34315 3 6V14C3 15.6569 4.34315 17 6 17H14C15.6569 17 17 15.6569 17 14V6C17 4.34315 15.6569 3 14 3H6ZM4 6C4 4.89543 4.89543 4 6 4H14C15.1046 4 16 4.89543 16 6V14C16 15.1046 15.1046 16 14 16H6C4.89543 16 4 15.1046 4 14V6Z" fill="#212121"/>
</svg>

<svg xmlns="http://www.w3.org/2000/svg" width="20" height="20"><path d="M10 5a2 2 0 1 0 0 4 2 2 0 0 0 0-4Zm2.5 5h-5A1.5 1.5 0 0 0 6 11.5c0 1.116.459 2.01 1.212 2.615C7.953 14.71 8.947 15 10 15c1.053 0 2.047-.29 2.788-.885C13.54 13.51 14 12.616 14 11.5a1.5 1.5 0 0 0-1.5-1.5ZM6 3a3 3 0 0 0-3 3v8a3 3 0 0 0 3 3h8a3 3 0 0 0 3-3V6a3 3 0 0 0-3-3H6ZM4 6a2 2 0 0 1 2-2h8a2 2 0 0 1 2 2v8a2 2 0 0 1-2 2H6a2 2 0 0 1-2-2V6Z"/></svg>
